icon-svg/pet-water-fountain.svg

<svg xmlns="http://www.w3.org/2000/svg" viewBox="0 0 24 24"><path fill="#44739e" d="m20.023 20.141 1.512-.447.29-.641-1.693.532Zm-9.559.265-.016.081a.53.53 0 0 0 .5.635l3.513.084c.632.024-.147-.227.287-.687ZM2.2 19.277a2.2 2.2 0 0 0 1.505 1.009l2.094.346a.528.528 0 0 0 .615-.521v-.083ZM2.1 8.182a45.3 45.3 0 0 0 8.842.816 28 28 0 0 0 4.206-.272A17.2 17.2 0 0 0 21.3 6.719l.183-.1q.24-.126.423-.217l.031-.015.063-2.74c-.023-.063-.11-.22-1.526-.431-.873-.129-2.068-.241-3.365-.315a42.6 42.6 0 0 0-7.78.156A25.2 25.2 0 0 0 2 5.437l.06 2.735ZM21.83 6.32l-.015.008a9 9 0 0 0-.381.2 18 18 0 0 1-6.344 2.029 35 35 0 0 1-4.651.274 41 41 0 0 1-8.249-.738l-.02-.009-.051-2.34.041.02c.894.434 4.6.6 8.616.382 2.445-.132 8.418-.612 11.063-2.217l.044-.026ZM2.088 5.539a25.8 25.8 0 0 1 7.257-2.372 42.6 42.6 0 0 1 7.725-.156c3.146.177 4.711.53 4.818.725l.012.023-.022.014C19.313 5.411 13.256 5.9 10.77 6.034c-1.2.064-2.33.093-3.358.093-2.928 0-5.011-.232-5.312-.534l-.035-.035Zm8.679.439c2.116-.114 6.826-.485 9.751-1.605-.9-.1-2.162-.146-3.579-.178l-.149-.43-.049-.144v-.009a.8.8 0 0 0-.936-.47.74.74 0 0 0-.484.47l-.048.369-.024.18a144 144 0 0 1-3.236-.09 11.6 11.6 0 0 0-4.577.681L3.775 5.823c-.035.013-.108.04-.2.078a47 47 0 0 0 7.192.077m6.306-2.366h-.001l.004.009Zm.044.117a1 1 0 0 0-.041-.108l.05.144ZM5.074 6.936c.987.083 3.239.337 4.4.357 5.481.1 6.806-.366 9.713-1.47 1.538-.583 2.714-1.146 2.174-1.306a4 4 0 0 0-.4-.083c-2.929 1.248-7.981 1.649-10.182 1.772a44 44 0 0 1-7.574-.13c-.447.243-.786.582.5.688Zm9.036-.85c.451 0 .817.121.817.27s-.366.269-.817.269-.817-.121-.817-.269.366-.27.817-.27m-11.705.5.032 1.329.326.131-.038-1.251Zm.439.228.024 1.25a53.3 53.3 0 0 0 9.859.574l.082-1.194a44 44 0 0 1-9.965-.63m2.723 2.04c-.295-.033-3.08-.4-3.529-.532l.07 10.4a.476.476 0 0 0 .381.469c8.2 1.649 14.959 1.5 19.2-.234a.42.42 0 0 0 .26-.389l.022-11.982C18.958 8.4 14.11 9.798 5.567 8.854m1.248 1.681a.454.454 0 0 1 .5-.452.454.454 0 0 1 .408.452v4.562a.453.453 0 0 1-.543.444.45.45 0 0 1-.364-.444Zm.453 8.518a.7.7 0 0 1 0-1.371.7.7 0 0 1 0 1.371M12.93 8.621a20.9 20.9 0 0 0 8.729-2.326l.041-1.406a21.3 21.3 0 0 1-8.683 2.5Z"/></svg>

<?xml version="1.0" encoding="UTF-8"?>
<svg width="24px" fill="#44739e" height="24px" viewBox="0 0 24 24" version="1.1" xmlns="http://www.w3.org/2000/svg" xmlns:xlink="http://www.w3.org/1999/xlink">
            <path d="m 20.023,20.135 1.512,-0.447 0.29,-0.641 -1.693,0.532 z m -9.559,0.265 -0.016,0.081 a 0.529,0.529 0 0 0 0.5,0.635 l 3.513,0.084 c 0.632,0.024 -0.147,-0.227 0.287,-0.687 z M 2.2,19.271 a 2.2,2.2 0 0 0 1.505,1.009 l 2.094,0.346 A 0.528,0.528 0 0 0 6.414,20.105 V 20.022 Z M 2.1,8.176 A 45.321,45.321 0 0 0 10.942,8.992 28.29,28.29 0 0 0 15.148,8.72 17.241,17.241 0 0 0 21.3,6.713 l 0.183,-0.1 c 0.161,-0.084 0.3,-0.156 0.423,-0.217 L 21.937,6.381 22,3.641 C 21.977,3.578 21.89,3.421 20.474,3.21 19.601,3.081 18.406,2.969 17.109,2.895 A 42.62,42.62 0 0 0 9.329,3.051 25.148,25.148 0 0 0 2,5.431 L 2.06,8.166 Z M 21.83,6.314 21.815,6.322 c -0.114,0.056 -0.238,0.121 -0.381,0.2 A 18.038,18.038 0 0 1 15.09,8.551 34.938,34.938 0 0 1 10.439,8.825 40.94,40.94 0 0 1 2.19,8.087 L 2.17,8.078 2.119,5.738 2.16,5.758 c 0.894,0.434 4.6,0.6 8.616,0.382 2.445,-0.132 8.418,-0.612 11.063,-2.217 L 21.883,3.897 Z M 2.088,5.533 A 25.8,25.8 0 0 1 9.345,3.161 42.554,42.554 0 0 1 17.07,3.005 c 3.146,0.177 4.711,0.53 4.818,0.725 L 21.9,3.753 21.878,3.767 C 19.313,5.405 13.256,5.894 10.77,6.028 9.57,6.092 8.44,6.121 7.412,6.121 4.484,6.121 2.401,5.889 2.1,5.587 L 2.065,5.552 Z m 8.679,0.439 c 2.116,-0.114 6.826,-0.485 9.751,-1.605 -0.9,-0.1 -2.162,-0.146 -3.579,-0.178 L 16.79,3.759 16.741,3.615 V 3.606 a 0.8,0.8 0 0 0 -0.936,-0.47 0.744,0.744 0 0 0 -0.484,0.47 v 0 l -0.048,0.369 -0.024,0.18 C 14.178,4.134 13.073,4.11 12.013,4.065 A 11.574,11.574 0 0 0 7.436,4.746 L 3.775,5.817 C 3.74,5.83 3.667,5.857 3.575,5.895 a 47.334,47.334 0 0 0 7.192,0.077 z m 6.306,-2.366 h -0.001 l 0.004,0.009 z m 0.044,0.117 A 0.827,0.827 0 0 0 17.076,3.615 l 0.05,0.144 C 17.123,3.747 17.121,3.735 17.117,3.723 Z M 5.074,6.93 c 0.987,0.083 3.239,0.337 4.4,0.357 5.481,0.1 6.806,-0.366 9.713,-1.47 1.538,-0.583 2.714,-1.146 2.174,-1.306 a 3.489,3.489 0 0 0 -0.4,-0.083 C 18.032,5.676 12.98,6.077 10.779,6.2 A 44.268,44.268 0 0 1 3.205,6.07 C 2.758,6.313 2.419,6.652 3.705,6.758 Z M 14.11,6.08 c 0.451,0 0.817,0.121 0.817,0.27 0,0.149 -0.366,0.269 -0.817,0.269 -0.451,0 -0.817,-0.121 -0.817,-0.269 0,-0.148 0.366,-0.27 0.817,-0.27 z M 2.405,6.58 2.437,7.909 2.763,8.04 2.725,6.789 Z m 0.439,0.228 0.024,1.25 a 53.316,53.316 0 0 0 9.859,0.574 L 12.809,7.438 A 44.025,44.025 0 0 1 2.844,6.808 Z m 2.723,2.04 C 5.272,8.815 2.487,8.448 2.038,8.316 l 0.07,10.4 a 0.476,0.476 0 0 0 0.381,0.469 c 8.2,1.649 14.959,1.5 19.2,-0.234 a 0.421,0.421 0 0 0 0.26,-0.389 L 21.971,6.58 C 18.958,8.394 14.11,9.792 5.567,8.848 Z m 1.248,1.681 a 0.454,0.454 0 0 1 0.5,-0.452 v 0 a 0.454,0.454 0 0 1 0.408,0.452 v 4.562 A 0.453,0.453 0 0 1 7.18,15.535 v 0 A 0.452,0.452 0 0 1 6.816,15.091 Z m 0.453,8.518 a 0.7,0.7 0 0 1 0,-1.371 0.7,0.7 0 0 1 0,1.371 z M 12.93,8.615 A 20.927,20.927 0 0 0 21.659,6.289 L 21.7,4.883 a 21.28,21.28 0 0 1 -8.683,2.5 z"/>

</svg>
